X:1
T:The Little Log Cabin by the Stream
M:6/8
L:1/4
K:F
 C/2| C F/2 F G/2| A F/2 F E/2| E/2 D D D/2| D3/2 z/2 E/2F/2| G ^F/2 G A/2|\
 B/2 G E C/2| A3/2 z C/4C/4| C F/2 F G/2| A/2 G F E/2| E/2 D D D/2|\
 D3/2 E F/2| G ^F/2 G A/2| B G/2 E C/2| F3/2 z F/2| B3/2 B B/2| F/2 F F F/2|\
 A A/2 A A/2| F3/2 F F/2| G G/2 G A/2| B G/2 E C/2| A3/2 z C/2| F F/2 F G/2|\
 A G/2 F E/2| E D/2 D C/2| D3/2 E F/2| G ^F/2 G A/2| B G/2 E C/2| F3/2 z||\
